!!!COM: Thomas Morley
!!!OPR: A Plaine and Easie Introduction to Practicall Musicke
!!!OTL: [Didactic example]
!!!YOR: A Plaine and Easie Introduction to Practicall Musicke
!!!YOR: London: Peter Short, 1597
!!!YOR: Reprinted by Farnborough, 1971.
!!!YOR: MS p.98.
!!!ONB: Canon at the fourth above after a semibreve with the cantus firmus below.
**kern	**kern	**kern
*CF	*guida	*conseq
*M4/2	*M4/2	*M4/2
*k[]	*k[]	*k[]
=1	=1	=1
1GG	1G	1r
1C	1E	1c
=2	=2	=2
1D	4F#	1A
.	2G	.
.	4F#	.
1GG	1G	4B
.	.	2c
.	.	4B
=3	=3	=3
1C	2r	1c
.	2G	.
1A	2A	2r
.	2c	2c
=4	=4	=4
1D	2B	2d
.	2A	2f
1GG	2.B	2e
.	.	2d
.	4A	.
=5	=5	=5
1C	2G	2.e
.	2G	.
.	.	4d
1AA	4.A	2c
.	8G	.
.	4F	2c
.	4E	.
=6	=6	=6
1BB	2D	4.d
.	.	8c
.	2D	4B
.	.	4A
1C	4E	2G
.	4F	.
.	4G	2G
.	4E	.
=7	=7	=7
1AA	4F#	4A
.	2G	4B
.	.	4c
.	4F#	4A
[1GG	[1G	[1B
=8	=8	=8
0GG]	0G]	0B]
==	==	==
*-	*-	*-
!!!CDT: ~1557//-~1603//
!!!CNT: English
!!!YEP: David Huron and Denis Collins
!!!YEN: Canada
!!!AIN: vox
!!!AGN: vox
!!!AST: polyphony
!!!RDT: 1995 July 23
!!!YED: 1995 August 31
!!!AFR: cantus firmus canon
!!!AMT: simple quadruple
!!!EEV: 1.0
